X:0337
T:Dublin Volunteers Quick March.
M:2/4
L:1/8
Q:1/2=84
I: :: ::
Z:Jack Campin * www.campin.me.uk * 2009
K:G
z|   GBdg|gfac    |cBdG |BAGF         |\
     GBdg|gfed    |gedc |de (d/c/B/A/)|
     GBdg|gfac    |cBdG |BAGF         |\
     GBdg|gfed    |fed^c|d>ed        :|
f/g/|afdf|gdBG    |ecAG |GFED         |\
     GBdg|gf/g/ ac|BAGF |G>A G       :|

